optimized/24/outline/book-stack.svg

<svg xmlns="http://www.w3.org/2000/svg" fill="none" viewBox="0 0 24 24">
  <path stroke-linecap="round" stroke-linejoin="round" d="M20.3589 14.1589C21.52 12.6109 20.8427 10.2889 20.3589 9.80511H19.8752M20.3589 14.1589C19.8621 14.7799 19.4729 15.286 19.3914 16.094C19.3194 16.8085 19.2706 16.8494 19.3914 17.5453C19.5597 18.5144 20.104 19.3904 20.3589 19.964H3.42737C3.21633 19.1199 3.09639 18.3044 3.04011 17.5453C2.98161 16.7561 2.99189 16.7308 3.04011 16.094C3.11563 15.0966 3.28421 14.5884 3.42737 14.1589M20.3589 14.1589H17.9683M3.42737 14.1589C3.10487 13.3527 2.65336 10.5791 3.42737 9.80511H4.87865M3.42737 14.1589H7.83759M4.87865 9.80511C5.36241 9.1601 6.03967 8.06358 4.87865 6.90255C5.32596 6.90255 5.8133 6.90255 6.32993 6.90255M4.87865 9.80511H7.83759M19.8752 9.80511C20.6492 8.64409 20.1977 7.54757 19.8752 6.90255C19.8752 6.90255 19.7026 6.90255 19.3914 6.90255M19.8752 9.80511H17.9683M6.32993 6.90255C6.00742 6.25754 5.84617 4.48376 6.32993 4H19.3914C19.7139 4.32251 20.1654 5.74153 19.3914 6.90255M6.32993 6.90255C10.8281 6.90255 17.5462 6.90255 19.3914 6.90255M7.83759 14.1589V9.80511M7.83759 14.1589H10.2564M7.83759 9.80511H10.2564M10.2564 14.1589V9.80511M10.2564 14.1589H12.9171H15.5777M10.2564 9.80511H15.5777M15.5777 14.1589V9.80511M15.5777 14.1589H17.9683M15.5777 9.80511H17.9683M17.9683 14.1589V9.80511M7.5 17H15.5"/>
</svg>

<svg xmlns="http://www.w3.org/2000/svg" fill="none" viewBox="0 0 24 24" stroke-width="1.5" stroke="currentColor" aria-hidden="true">
  <path stroke-linecap="round" stroke-linejoin="round" d="M20.359 14.159c1.161-1.548.484-3.87 0-4.354h-.484m.484 4.354c-.497.62-.886 1.127-.968 1.935-.072.714-.12.755 0 1.451.169.97.713 1.845.968 2.419H3.427a14.36 14.36 0 01-.387-2.419c-.058-.789-.048-.814 0-1.451.076-.997.244-1.506.387-1.935m16.932 0h-2.39m-14.542 0c-.322-.806-.774-3.58 0-4.354H4.88M3.427 14.16h4.41M4.88 9.805c.483-.645 1.16-1.741 0-2.902h1.45M4.88 9.805h2.959m12.037 0c.774-1.16.323-2.257 0-2.902h-.484m.484 2.902h-1.907M6.33 6.903c-.323-.645-.484-2.42 0-2.903H19.39c.323.323.774 1.742 0 2.903m-13.061 0H19.39M7.838 14.159V9.805m0 4.354h2.418M7.838 9.805h2.418m0 4.354V9.805m0 4.354h5.321m-5.32-4.354h5.32m0 4.354V9.805m0 4.354h2.391m-2.39-4.354h2.39m0 4.354V9.805M7.5 17h8"/>
</svg>
